X: 26
T: Rock Valley
C: John Burt
O: Canadian, American
B: NEFR #27
Z: 2012 John Chambers <jc:trillian.mit.edu>
M: 6/8
L: 1/8
K: C
|:\
"C"C2E GFE | "Dm"D2E F2A | "G7"GAG GBd | "C"cBc "G7"AGE |\
"C"C2E GFE | "Dm"D2E F2A | "G7"GAG GBd | "C"cdc c3 :|
|:{ef}\
"C"gag gag | "C"e2c cBA | "C"G2c B2c | "Dm"e2d d^cd |\
"C"gag gag | "C"e2c cBA | "G"G2c "G7"Bcd | "C"cdc c3 :|
